packages/webapp/public/images/template-logos/outreach.svg

<svg width="62" height="62" viewBox="0 0 62 62" fill="none" xmlns="http://www.w3.org/2000/svg">
<path d="M28.5433 10C35.29 10 45.4467 12.09 50.2133 16.82C51.4233 18.03 53 20.3767 53 23.86C53 30.02 48.05 39.4433 42.6233 44.9433C39.8 47.7667 35.3267 51.47 29.2767 51.47C23.3733 51.47 18.8633 47.4367 17.58 46.1533C12.5933 41.13 9 33.54 9 26.4267C9 21.9533 10.2833 18.03 13.51 14.7667C16.5167 11.7233 21.6867 10 28.5433 10ZM36.9033 34.53C39.1767 32.2567 39.8 29.4333 39.8 27.8933C39.8 26.7567 39.5067 25.1067 38.1133 23.7133C35.95 21.55 33.6033 20.9633 31 20.9633C27.7367 20.9633 25.5367 21.99 24.07 23.4567C22.9333 24.5933 21.9433 26.39 21.9433 28.92C21.9433 31.45 23.2633 33.87 24.73 35.3367C26.0867 36.6933 28.1767 37.6833 30.34 37.6833C32.5033 37.6833 34.63 36.8033 36.9033 34.53Z" fill="#5952FF"/>
</svg>

<svg xmlns="http://www.w3.org/2000/svg" width="62" height="62" fill="none"><path d="M28.543 10c6.747 0 16.903 2.09 21.67 6.82C51.423 18.03 53 20.377 53 23.86c0 6.16-4.95 15.583-10.377 21.083-2.823 2.823-7.297 6.527-13.347 6.527-5.903 0-10.413-4.033-11.697-5.317C12.593 41.13 9 33.54 9 26.427c0-4.473 1.283-8.397 4.51-11.66C16.517 11.723 21.687 10 28.543 10zm8.36 24.53c2.273-2.273 2.897-5.097 2.897-6.637 0-1.137-.293-2.787-1.687-4.18-2.163-2.163-4.51-2.75-7.113-2.75-3.263 0-5.463 1.027-6.93 2.493-1.137 1.137-2.127 2.933-2.127 5.463s1.32 4.95 2.787 6.417c1.357 1.357 3.447 2.347 5.61 2.347s4.29-.88 6.563-3.153z" fill="#5952ff"/></svg>
